X: 1
T: la Chapelloise
T: Yves & Mary's Happiness
C: (Trad. France)
Z: 2014 John Chambers <jc:trillian.mit.edu>
M: 6/8
L: 1/8
K: G
D |\
"G"B3 GAB | "C"c3 e2c | "G"B3 GAB | "D7"A2F D2D |\
"G"B3 GAB | "C"c3 e2c | "G"B2G "D7"AGF | "G"G3- G2 :|
d |\
"G"dBd dBd | "C"e2c e2c | "G"B3 "Em"GAB | "Am"A3- "D7"A2d |\
"G"dBd dBd | "C"e2c e2c | "G"B2G "D7"AGF | "G"G3- G2 |]
d |\
"G"dBd dBd | "C"e2c e2c | "G"B3 "Em"GAB | "Am"A3- "D7"A2D |\
"G"B3 GAB | "C"c3 e2c | "G"B2G "D7"AGF | "G"G3- G2 |]
